HTML/img/Rhythms/Rhythm_EightNote.svg

<svg width="612" height="792" viewBox="0 0 40 40" xmlns="http://www.w3.org/2000/svg"><path class="Stem" fill="none" stroke="#000" stroke-width=".65" stroke-linecap="round" stroke-linejoin="bevel" d="M17.034 13.566v16.561"/><path class="Note" d="M21.104 9.873c.625 0 1.152.162 1.582.488.403.351.605.794.605 1.328 0 .898-.462 1.738-1.387 2.52-.937.781-1.94 1.171-3.007 1.171-.625 0-1.153-.162-1.582-.488a1.685 1.685 0 01-.606-1.328c0-.898.469-1.738 1.406-2.52.912-.781 1.908-1.171 2.989-1.171"/><path class="Hook" d="M21.26 15.654c.299 0 .618.488.957 1.465.325.963.488 1.881.488 2.754 0 .742-.182 1.477-.547 2.207a8.493 8.493 0 01-1.347 2.031l-1.602 1.797a10.217 10.217 0 00-1.328 1.992 4.923 4.923 0 00-.547 2.227h-.625v-5h.625a44.55 44.55 0 001.563-1.055c.312-.235.781-.625 1.406-1.172.508-.469.892-.951 1.152-1.445.274-.521.41-1.049.41-1.582 0-1.237-.358-2.468-1.074-3.692v-.078c0-.117.039-.215.117-.293a.487.487 0 01.352-.156"/></svg>

<?xml version="1.0" encoding="utf-8"?>
<svg width="612px" height="792px" viewBox="0 0 40 40" xmlns="http://www.w3.org/2000/svg">
  <title>Rhythm Reference</title>
  <desc>Generated by MuseScore 2.0.3</desc>
  <polyline class="Stem" fill="none" stroke="#000000" stroke-width="0.65" stroke-linecap="round" stroke-linejoin="bevel" points="17.034 13.566 17.034 30.127"/>
  <path class="Note" d="M 21.104 9.873 C 21.729 9.873 22.256 10.035 22.686 10.361 C 23.089 10.712 23.291 11.155 23.291 11.689 C 23.291 12.587 22.829 13.427 21.904 14.209 C 20.967 14.99 19.964 15.38 18.897 15.38 C 18.272 15.38 17.744 15.218 17.315 14.892 C 16.911 14.541 16.709 14.098 16.709 13.564 C 16.709 12.666 17.178 11.826 18.115 11.044 C 19.027 10.263 20.023 9.873 21.104 9.873"/>
  <path class="Hook" d="M 21.26 15.654 C 21.559 15.654 21.878 16.142 22.217 17.119 C 22.542 18.082 22.705 19 22.705 19.873 C 22.705 20.615 22.523 21.35 22.158 22.08 C 21.781 22.861 21.331 23.538 20.811 24.111 L 19.209 25.908 C 18.714 26.481 18.272 27.145 17.881 27.9 C 17.516 28.629 17.334 29.371 17.334 30.127 L 16.709 30.127 L 16.709 25.127 L 17.334 25.127 C 17.686 24.905 18.206 24.554 18.897 24.072 C 19.209 23.837 19.678 23.447 20.303 22.9 C 20.811 22.431 21.195 21.949 21.455 21.455 C 21.729 20.934 21.865 20.406 21.865 19.873 C 21.865 18.636 21.507 17.405 20.791 16.181 C 20.791 16.181 20.791 16.155 20.791 16.103 C 20.791 15.986 20.83 15.888 20.908 15.81 C 21.012 15.706 21.13 15.654 21.26 15.654"/>
</svg>
